_inc/images/systems/logos/genh.svg

<svg viewBox="0 0 264 62" xmlns="http://www.w3.org/2000/svg">
    <path d="m332.787 4.932-8.481 25.83h4.188L336.99 5.82c.309-1.14 1.239-1.974 2.334-1.974 1.107 0 2.037.834 2.346 1.974l7.182 21.099h-11.268v3.843h16.77l-8.481-25.83A6.809 6.809 0 0 0 339.324 0a6.802 6.802 0 0 0-6.537 4.932Zm4.965 16.041 1.485-4.407 1.548 4.407h-3.033Zm-.612-12.648-7.596 22.437h4.896l3.141-9.3v4.398h9.864l-5.856-17.535c-.3-.975-1.185-3.783-2.229-3.783-1.047 0-1.935 2.805-2.22 3.783Zm-26.811-3.429h14.676V.699h-15.027c-4.053 0-7.338 3.294-7.338 7.347v15.381a7.338 7.338 0 0 0 7.338 7.338h15.027V11.181h-11.88v3.846h7.683v11.535h-10.479a3.488 3.488 0 0 1-3.492-3.492V8.385a3.489 3.489 0 0 1 3.492-3.489Zm2.796 11.181v4.2h2.442v1.047h-2.442a1.05 1.05 0 0 1-1.05-1.047v-9.093c0-.579.471-1.05 1.05-1.05h11.88V5.943h-13.626a3.5 3.5 0 0 0-3.504 3.495v12.585a3.5 3.5 0 0 0 3.504 3.492h8.388v-9.438h-6.642ZM286.218 4.896h14.676V.699h-15.03c-4.053 0-7.335 3.294-7.335 7.347v15.21c0 4.05 3.282 7.344 7.335 7.344h15.03v-4.197h-14.676a3.494 3.494 0 0 1-3.495-3.492V8.388a3.496 3.496 0 0 1 3.495-3.492Zm11.526 10.131v-3.843h-9.783c0-.579.471-1.05 1.05-1.05h11.88V5.943h-13.626a3.493 3.493 0 0 0-3.489 3.495v5.589h13.968Zm0 1.404v3.843h-9.783c0 .579.471 1.05 1.05 1.05h11.88v4.188h-13.626a3.491 3.491 0 0 1-3.489-3.495v-5.589l13.968.003Zm-35.91 5.238h-8.814v3.846h13.626a4.72 4.72 0 0 0-.174-9.438h-5.301c-2.142-.816-3.963-2.943-3.963-5.421 0-3.186 2.934-5.766 6.117-5.766h13.11V.696H262.8c-5.4 0-9.78 4.389-9.78 9.789 0 5.409 4.731 9.789 10.131 9.789v-.045l.027.045h3.123a.698.698 0 0 1 0 1.395h-4.467Zm5.781-11.88h8.823V5.943h-13.635a4.718 4.718 0 0 0-4.542 4.716 4.722 4.722 0 0 0 4.725 4.725h5.301c2.145.822 3.954 2.94 3.954 5.418 0 3.186-2.931 5.766-6.117 5.766h-13.101v4.197h13.626c5.403 0 9.789-4.38 9.789-9.789 0-5.4-4.731-9.789-10.134-9.789v.054l-.033-.054h-3.114a.691.691 0 0 1-.699-.696.7.7 0 0 1 .699-.696l4.458-.006Zm7.161 35.523v62.034h-20.889V84.429l-40.032-22.782v45.699h-20.889V45.312h21.759l39.162 22.281V45.312zm205.191-.3h21.714v62.43h-21.714zM346.413 57.498H310.74v12.486h42.807L333.033 82.47H310.74v12.486h57.969l-20.514 12.486h-58.86V59.283l21.405-14.271h56.184zm-189.666.234h-35.472v12.411h42.567l-20.397 12.42h-22.17v12.414h57.645l-20.4 12.417H99.99V59.505l21.285-14.193h55.872zM0 59.508l21.291-14.196h64.764L65.649 57.738H21.291v37.257h39.924V79.914h-24.84l20.403-12.42h25.731v25.728l-21.294 14.196H0zm466.698 35.268-20.811 12.666h-64.239l20.811-12.666h40.713V82.11h-61.524V57.681l20.811-12.669h65.145l-20.811 12.669h-42.525v11.76h62.43z" style="fill-opacity:1;fill:#fffdfd" transform="scale(.44 .44044)"/>
    <path style="fill-opacity:1;fill:#fffdfd" d="M443.172 94.776V82.11h-61.524V57.681l20.811-12.669h65.145l-20.811 12.669h-42.525v11.76h62.43v25.335l-20.811 12.666h-64.239l20.811-12.666zm155.925 0-20.811 12.666h-64.239l20.811-12.666h40.716V82.11h-61.527V57.681l20.811-12.669H600l-20.808 12.669h-42.525v11.76h62.43z" transform="scale(.44 .44044)"/>
    <path style="fill-opacity:1;fill:#fffdfd" d="M575.574 94.776V82.11h-61.527V57.681l20.811-12.669H600l-20.808 12.669h-42.525v11.76h62.43v25.335l-20.811 12.666h-64.239l20.811-12.666z" transform="scale(.44 .44044)"/>
    <path d="M83.596 61.815h-2.464v-2.726h-1.848v2.726H76.82v-7.708h2.464v2.727h1.848v-2.727h2.464v7.708Zm3.353-1.22-.286 1.22h-2.601l1.998-7.708h3.806l1.998 7.708h-2.601l-.281-1.22h-2.033Zm1.082-4.119h-.136l-.506 2.159h1.135l-.493-2.159Zm9.412 3.133.185 2.07c-.516.214-1.164.321-1.945.321-.78 0-1.406-.082-1.879-.246-.472-.165-.844-.424-1.117-.776a3.22 3.22 0 0 1-.568-1.246c-.105-.479-.158-1.067-.158-1.766 0-.7.053-1.288.158-1.767.109-.481.298-.9.568-1.255.525-.682 1.49-1.022 2.895-1.022.314 0 .682.031 1.104.093.423.061.737.137.942.229l-.37 1.885a6.993 6.993 0 0 0-1.465-.172c-.442 0-.75.041-.924.123-.173.083-.259.247-.259.494v3.233c.32.064.644.097.972.097.698 0 1.319-.099 1.861-.295Zm3.56-1.151h-.049v3.357H98.49v-7.708h2.464v3.145h.049c.017-.247.058-.443.123-.59l1.21-2.555h2.658l-1.848 3.788 1.909 3.92h-2.657l-1.272-2.762a1.827 1.827 0 0 1-.123-.595Zm4.485 3.221.343-2.035c.757.19 1.437.286 2.042.286.604 0 1.091-.025 1.46-.075v-.617l-1.108-.101c-1.004-.088-1.691-.327-2.064-.718-.375-.391-.563-.969-.563-1.735 0-1.051.229-1.775.686-2.171.455-.394 1.228-.591 2.319-.591 1.094 0 2.08.103 2.957.308l-.308 1.974c-.763-.124-1.374-.185-1.835-.185-.461 0-.851.02-1.17.061v.604l.888.088c1.077.106 1.821.362 2.231.771.411.405.616.97.616 1.695 0 .517-.07.955-.211 1.313s-.307.63-.497.814c-.194.186-.468.327-.823.424-.352.1-.661.159-.928.18-.267.021-.622.031-1.065.031-1.068 0-2.058-.107-2.97-.321Zm11.446-2.824h-1.909V57.08h1.909v-1.911h1.774v1.911h1.922v1.775h-1.922v1.925h-1.774v-1.925Zm13.834 2.96h-2.464v-2.726h-1.848v2.726h-2.464v-7.708h2.464v2.727h1.848v-2.727h2.464v7.708Zm.862-3.849c0-1.404.262-2.428.787-3.075.525-.646 1.474-.969 2.847-.969s2.322.323 2.847.969c.525.647.787 1.671.787 3.075 0 .699-.056 1.287-.167 1.766a3.255 3.255 0 0 1-.572 1.246c-.27.352-.644.611-1.122.776-.475.164-1.066.246-1.773.246-.707 0-1.298-.082-1.773-.246-.479-.165-.853-.424-1.122-.776a3.255 3.255 0 0 1-.572-1.246c-.112-.479-.167-1.067-.167-1.766Zm2.648-1.282v3.206h1.021c.338 0 .582-.038.735-.114.153-.079.229-.258.229-.538v-3.206h-1.034c-.329 0-.569.038-.722.114-.153.08-.229.259-.229.538Zm7.898 1.396-.15 3.735h-2.574l.467-7.708h3.216l.964 3.92h.083l.964-3.92h3.212l.471 7.708h-2.574l-.15-3.735h-.088l-.933 3.735h-1.887l-.946-3.735h-.075Zm12.503-.965v1.789h-2.464v.938h3.019v1.973h-5.483v-7.708h5.421l-.308 1.973h-2.649v1.035h2.464Zm6.024 4.7h-4.422v-7.708h3.99c.74 0 1.268.144 1.584.432.317.288.476.707.476 1.26 0 .548-.102.973-.304 1.272a1.345 1.345 0 0 1-.805.587v.074c.994.173 1.491.852 1.491 2.035 0 .616-.164 1.113-.492 1.488-.329.374-.835.56-1.518.56Zm-.999-3.07h-.959V60h.95c.343 0 .515-.208.515-.625 0-.42-.169-.63-.506-.63Zm-.185-2.946h-.774v1.145h.765c.311 0 .467-.191.467-.573 0-.382-.153-.572-.458-.572Zm9.441 3.452 1.328 2.564h-2.71l-1.012-2.294h-.528v2.294h-2.464v-7.708h3.881c1.765 0 2.649.9 2.649 2.7 0 1.233-.382 2.048-1.144 2.444Zm-2.354-3.171h-.568v1.542h.568c.296 0 .511-.03.646-.092.135-.063.203-.205.203-.428v-.501c0-.225-.068-.367-.203-.428-.135-.062-.35-.093-.646-.093Zm9.472 1.035v1.789h-2.464v.938h3.019v1.973h-5.483v-7.708h5.421l-.308 1.973h-2.649v1.035h2.464Zm7.933 1.295.594-4.303h2.574l-1.21 7.708h-3.212l-.568-2.836h-.149l-.555 2.836h-3.216l-1.206-7.708h2.574l.581 4.303h.075l.884-4.303h1.888l.871 4.303h.075Z" style="fill:#fff;white-space:pre"/>
</svg>

<?xml version="1.0" encoding="utf-8"?>
<svg version="1.1" id="Layer_1" x="0px" y="0px" enable-background="new -1 -1 568.929 116.145" viewBox="0 0 264 62" xmlns="http://www.w3.org/2000/svg">
  <g transform="matrix(0.44, 0, 0, 0.44044, 0, 0)">
    <path id="path16" d="M 332.787 4.932 L 324.306 30.762 L 328.494 30.762 L 336.99 5.82 C 337.299 4.68 338.229 3.846 339.324 3.846 C 340.431 3.846 341.361 4.68 341.67 5.82 L 348.852 26.919 L 337.584 26.919 L 337.584 30.762 L 354.354 30.762 L 345.873 4.932 C 345.06 2.082 342.435 0 339.324 0 C 336.222 0 333.6 2.082 332.787 4.932 Z M 337.752 20.973 L 339.237 16.566 L 340.785 20.973 L 337.752 20.973 Z M 337.14 8.325 L 329.544 30.762 L 334.44 30.762 L 337.581 21.462 L 337.581 25.86 L 347.445 25.86 L 341.589 8.325 C 341.289 7.35 340.404 4.542 339.36 4.542 C 338.313 4.542 337.425 7.347 337.14 8.325 L 337.14 8.325 Z M 310.329 4.896 L 325.005 4.896 L 325.005 0.699 L 309.978 0.699 C 305.925 0.699 302.64 3.993 302.64 8.046 L 302.64 23.427 C 302.64 27.48 305.925 30.765 309.978 30.765 L 325.005 30.765 L 325.005 11.181 L 313.125 11.181 L 313.125 15.027 L 320.808 15.027 L 320.808 26.562 L 310.329 26.562 C 308.394 26.562 306.837 24.999 306.837 23.07 L 306.837 8.385 C 306.837 6.462 308.394 4.896 310.329 4.896 Z M 313.125 16.077 L 313.125 20.277 L 315.567 20.277 L 315.567 21.324 L 313.125 21.324 C 312.546 21.324 312.075 20.853 312.075 20.277 L 312.075 11.184 C 312.075 10.605 312.546 10.134 313.125 10.134 L 325.005 10.134 L 325.005 5.943 L 311.379 5.943 C 309.444 5.943 307.875 7.509 307.875 9.438 L 307.875 22.023 C 307.875 23.949 309.444 25.515 311.379 25.515 L 319.767 25.515 L 319.767 16.077 L 313.125 16.077 L 313.125 16.077 Z M 286.218 4.896 L 300.894 4.896 L 300.894 0.699 L 285.864 0.699 C 281.811 0.699 278.529 3.993 278.529 8.046 L 278.529 23.256 C 278.529 27.306 281.811 30.6 285.864 30.6 L 300.894 30.6 L 300.894 26.403 L 286.218 26.403 C 284.289 26.403 282.723 24.84 282.723 22.911 L 282.723 8.388 C 282.723 6.462 284.289 4.896 286.218 4.896 L 286.218 4.896 Z M 297.744 15.027 L 297.744 11.184 L 287.961 11.184 C 287.961 10.605 288.432 10.134 289.011 10.134 L 300.891 10.134 L 300.891 5.943 L 287.265 5.943 C 285.339 5.943 283.776 7.509 283.776 9.438 L 283.776 15.027 L 297.744 15.027 L 297.744 15.027 Z M 297.744 16.431 L 297.744 20.274 L 287.961 20.274 C 287.961 20.853 288.432 21.324 289.011 21.324 L 300.891 21.324 L 300.891 25.512 L 287.265 25.512 C 285.339 25.512 283.776 23.949 283.776 22.017 L 283.776 16.428 L 297.744 16.431 L 297.744 16.431 Z M 261.834 21.669 L 253.02 21.669 L 253.02 25.515 L 266.472 25.515 L 266.646 25.515 C 269.169 25.422 271.188 23.343 271.188 20.799 C 271.188 18.195 269.079 16.077 266.472 16.077 L 261.171 16.077 C 259.029 15.261 257.208 13.134 257.208 10.656 C 257.208 7.47 260.142 4.89 263.325 4.89 L 276.435 4.89 L 276.435 0.696 L 262.8 0.696 C 257.4 0.696 253.02 5.085 253.02 10.485 C 253.02 15.894 257.751 20.274 263.151 20.274 L 263.151 20.229 L 263.178 20.274 L 266.301 20.274 C 266.679 20.274 266.997 20.583 266.997 20.973 C 266.997 21.36 266.679 21.669 266.301 21.669 L 261.834 21.669 L 261.834 21.669 Z M 267.615 9.789 L 276.438 9.789 L 276.438 5.943 L 262.983 5.943 L 262.803 5.943 C 260.277 6.033 258.261 8.115 258.261 10.659 C 258.261 13.272 260.376 15.384 262.986 15.384 L 268.287 15.384 C 270.432 16.206 272.241 18.324 272.241 20.802 C 272.241 23.988 269.31 26.568 266.124 26.568 L 253.023 26.568 L 253.023 30.765 L 266.649 30.765 C 272.052 30.765 276.438 26.385 276.438 20.976 C 276.438 15.576 271.707 11.187 266.304 11.187 L 266.304 11.241 L 266.271 11.187 L 263.157 11.187 C 262.767 11.187 262.458 10.881 262.458 10.491 C 262.458 10.113 262.767 9.795 263.157 9.795 L 267.615 9.789 L 267.615 9.789 Z" style="fill-opacity: 1; fill: rgb(255, 253, 253);"/>
    <polygon id="polygon37" points="274.776 45.312 274.776 107.346 253.887 107.346 253.887 84.429 213.855 61.647 213.855 107.346 192.966 107.346 192.966 45.312 214.725 45.312 253.887 67.593 253.887 45.312" style="fill-opacity: 1; fill: rgb(255, 253, 253);"/>
    <rect id="rect58" x="479.967" y="45.012" width="21.714" height="62.43" style="fill-opacity: 1; fill: rgb(255, 253, 253);"/>
    <polygon id="polygon79" points="346.413 57.498 310.74 57.498 310.74 69.984 353.547 69.984 333.033 82.47 310.74 82.47 310.74 94.956 368.709 94.956 348.195 107.442 289.335 107.442 289.335 59.283 310.74 45.012 366.924 45.012" style="fill-opacity: 1; fill: rgb(255, 253, 253);"/>
    <polygon id="polygon100" points="156.747 57.732 121.275 57.732 121.275 70.143 163.842 70.143 143.445 82.563 121.275 82.563 121.275 94.977 178.92 94.977 158.52 107.394 99.99 107.394 99.99 59.505 121.275 45.312 177.147 45.312" style="fill-opacity: 1; fill: rgb(255, 253, 253);"/>
    <polygon id="polygon121" points="0 59.508 21.291 45.312 86.055 45.312 65.649 57.738 21.291 57.738 21.291 94.995 61.215 94.995 61.215 79.914 36.375 79.914 56.778 67.494 82.509 67.494 82.509 93.222 61.215 107.418 0 107.418" style="fill-opacity: 1; fill: rgb(255, 253, 253);"/>
    <polygon points="466.698 94.776 445.887 107.442 381.648 107.442 402.459 94.776 443.172 94.776 443.172 82.11 381.648 82.11 381.648 57.681 402.459 45.012 467.604 45.012 446.793 57.681 404.268 57.681 404.268 69.441 466.698 69.441" id="polygon170" style="fill-opacity: 1; fill: rgb(255, 253, 253);"/>
    <polygon id="polygon142" points="443.172 94.776 443.172 82.11 381.648 82.11 381.648 57.681 402.459 45.012 467.604 45.012 446.793 57.681 404.268 57.681 404.268 69.441 466.698 69.441 466.698 94.776 445.887 107.442 381.648 107.442 402.459 94.776" style="fill-opacity: 1; fill: rgb(255, 253, 253);"/>
    <polygon points="599.097 94.776 578.286 107.442 514.047 107.442 534.858 94.776 575.574 94.776 575.574 82.11 514.047 82.11 514.047 57.681 534.858 45.012 600 45.012 579.192 57.681 536.667 57.681 536.667 69.441 599.097 69.441" id="polygon202" style="fill-opacity: 1; fill: rgb(255, 253, 253);"/>
    <polygon id="polygon163" points="575.574 94.776 575.574 82.11 514.047 82.11 514.047 57.681 534.858 45.012 600 45.012 579.192 57.681 536.667 57.681 536.667 69.441 599.097 69.441 599.097 94.776 578.286 107.442 514.047 107.442 534.858 94.776" style="fill-opacity: 1; fill: rgb(255, 253, 253);"/>
  </g>
  <path d="M 83.596 61.815 L 81.132 61.815 L 81.132 59.089 L 79.284 59.089 L 79.284 61.815 L 76.82 61.815 L 76.82 54.107 L 79.284 54.107 L 79.284 56.834 L 81.132 56.834 L 81.132 54.107 L 83.596 54.107 L 83.596 61.815 Z M 86.949 60.595 L 86.663 61.815 L 84.062 61.815 L 86.06 54.107 L 89.866 54.107 L 91.864 61.815 L 89.263 61.815 L 88.982 60.595 L 86.949 60.595 Z M 88.031 56.476 L 87.895 56.476 L 87.389 58.635 L 88.524 58.635 L 88.031 56.476 Z M 97.443 59.609 L 97.628 61.679 C 97.112 61.893 96.464 62 95.683 62 C 94.903 62 94.277 61.918 93.804 61.754 C 93.332 61.589 92.96 61.33 92.687 60.978 C 92.417 60.623 92.228 60.207 92.119 59.732 C 92.014 59.253 91.961 58.665 91.961 57.966 C 91.961 57.266 92.014 56.678 92.119 56.199 C 92.228 55.718 92.417 55.299 92.687 54.944 C 93.212 54.262 94.177 53.922 95.582 53.922 C 95.896 53.922 96.264 53.953 96.686 54.015 C 97.109 54.076 97.423 54.152 97.628 54.244 L 97.258 56.129 C 96.725 56.014 96.236 55.957 95.793 55.957 C 95.351 55.957 95.043 55.998 94.869 56.08 C 94.696 56.163 94.61 56.327 94.61 56.574 L 94.61 59.807 C 94.93 59.871 95.254 59.904 95.582 59.904 C 96.28 59.904 96.901 59.805 97.443 59.609 Z M 101.003 58.458 L 100.954 58.458 L 100.954 61.815 L 98.49 61.815 L 98.49 54.107 L 100.954 54.107 L 100.954 57.252 L 101.003 57.252 C 101.02 57.005 101.061 56.809 101.126 56.662 L 102.336 54.107 L 104.994 54.107 L 103.146 57.895 L 105.055 61.815 L 102.398 61.815 L 101.126 59.053 C 101.061 58.904 101.02 58.706 101.003 58.458 Z M 105.488 61.679 L 105.831 59.644 C 106.588 59.834 107.268 59.93 107.873 59.93 C 108.477 59.93 108.964 59.905 109.333 59.855 L 109.333 59.238 L 108.225 59.137 C 107.221 59.049 106.534 58.81 106.161 58.419 C 105.786 58.028 105.598 57.45 105.598 56.684 C 105.598 55.633 105.827 54.909 106.284 54.513 C 106.739 54.119 107.512 53.922 108.603 53.922 C 109.697 53.922 110.683 54.025 111.56 54.23 L 111.252 56.204 C 110.489 56.08 109.878 56.019 109.417 56.019 C 108.956 56.019 108.566 56.039 108.247 56.08 L 108.247 56.684 L 109.135 56.772 C 110.212 56.878 110.956 57.134 111.366 57.543 C 111.777 57.948 111.982 58.513 111.982 59.238 C 111.982 59.755 111.912 60.193 111.771 60.551 C 111.63 60.909 111.464 61.181 111.274 61.365 C 111.08 61.551 110.806 61.692 110.451 61.789 C 110.099 61.889 109.79 61.948 109.523 61.969 C 109.256 61.99 108.901 62 108.458 62 C 107.39 62 106.4 61.893 105.488 61.679 Z M 116.934 58.855 L 115.025 58.855 L 115.025 57.08 L 116.934 57.08 L 116.934 55.169 L 118.708 55.169 L 118.708 57.08 L 120.63 57.08 L 120.63 58.855 L 118.708 58.855 L 118.708 60.78 L 116.934 60.78 L 116.934 58.855 Z M 130.768 61.815 L 128.304 61.815 L 128.304 59.089 L 126.456 59.089 L 126.456 61.815 L 123.992 61.815 L 123.992 54.107 L 126.456 54.107 L 126.456 56.834 L 128.304 56.834 L 128.304 54.107 L 130.768 54.107 L 130.768 61.815 Z M 131.63 57.966 C 131.63 56.562 131.892 55.538 132.417 54.891 C 132.942 54.245 133.891 53.922 135.264 53.922 C 136.637 53.922 137.586 54.245 138.111 54.891 C 138.636 55.538 138.898 56.562 138.898 57.966 C 138.898 58.665 138.842 59.253 138.731 59.732 C 138.62 60.207 138.429 60.623 138.159 60.978 C 137.889 61.33 137.515 61.589 137.037 61.754 C 136.562 61.918 135.971 62 135.264 62 C 134.557 62 133.966 61.918 133.491 61.754 C 133.012 61.589 132.638 61.33 132.369 60.978 C 132.099 60.623 131.908 60.207 131.797 59.732 C 131.685 59.253 131.63 58.665 131.63 57.966 Z M 134.278 56.684 L 134.278 59.89 L 135.299 59.89 C 135.637 59.89 135.881 59.852 136.034 59.776 C 136.187 59.697 136.263 59.518 136.263 59.238 L 136.263 56.032 L 135.229 56.032 C 134.9 56.032 134.66 56.07 134.507 56.146 C 134.354 56.226 134.278 56.405 134.278 56.684 Z M 142.176 58.08 L 142.026 61.815 L 139.452 61.815 L 139.919 54.107 L 143.135 54.107 L 144.099 58.027 L 144.182 58.027 L 145.146 54.107 L 148.358 54.107 L 148.829 61.815 L 146.255 61.815 L 146.105 58.08 L 146.017 58.08 L 145.084 61.815 L 143.197 61.815 L 142.251 58.08 L 142.176 58.08 Z M 154.679 57.115 L 154.679 58.904 L 152.215 58.904 L 152.215 59.842 L 155.234 59.842 L 155.234 61.815 L 149.751 61.815 L 149.751 54.107 L 155.172 54.107 L 154.864 56.08 L 152.215 56.08 L 152.215 57.115 L 154.679 57.115 Z M 160.703 61.815 L 156.281 61.815 L 156.281 54.107 L 160.271 54.107 C 161.011 54.107 161.539 54.251 161.855 54.539 C 162.172 54.827 162.331 55.246 162.331 55.799 C 162.331 56.347 162.229 56.772 162.027 57.071 C 161.828 57.374 161.559 57.57 161.222 57.658 L 161.222 57.732 C 162.216 57.905 162.713 58.584 162.713 59.767 C 162.713 60.383 162.549 60.88 162.221 61.255 C 161.892 61.629 161.386 61.815 160.703 61.815 Z M 159.704 58.745 L 158.745 58.745 L 158.745 60 L 159.695 60 C 160.038 60 160.21 59.792 160.21 59.375 C 160.21 58.955 160.041 58.745 159.704 58.745 Z M 159.519 55.799 L 158.745 55.799 L 158.745 56.944 L 159.51 56.944 C 159.821 56.944 159.977 56.753 159.977 56.371 C 159.977 55.989 159.824 55.799 159.519 55.799 Z M 168.96 59.251 L 170.288 61.815 L 167.578 61.815 L 166.566 59.521 L 166.038 59.521 L 166.038 61.815 L 163.574 61.815 L 163.574 54.107 L 167.455 54.107 C 169.22 54.107 170.104 55.007 170.104 56.807 C 170.104 58.04 169.722 58.855 168.96 59.251 Z M 166.606 56.08 L 166.038 56.08 L 166.038 57.622 L 166.606 57.622 C 166.902 57.622 167.117 57.592 167.252 57.53 C 167.387 57.467 167.455 57.325 167.455 57.102 L 167.455 56.601 C 167.455 56.376 167.387 56.234 167.252 56.173 C 167.117 56.111 166.902 56.08 166.606 56.08 Z M 176.078 57.115 L 176.078 58.904 L 173.614 58.904 L 173.614 59.842 L 176.633 59.842 L 176.633 61.815 L 171.15 61.815 L 171.15 54.107 L 176.571 54.107 L 176.263 56.08 L 173.614 56.08 L 173.614 57.115 L 176.078 57.115 Z M 184.011 58.41 L 184.605 54.107 L 187.179 54.107 L 185.969 61.815 L 182.757 61.815 L 182.189 58.979 L 182.04 58.979 L 181.485 61.815 L 178.269 61.815 L 177.063 54.107 L 179.637 54.107 L 180.218 58.41 L 180.293 58.41 L 181.177 54.107 L 183.065 54.107 L 183.936 58.41 L 184.011 58.41 Z" style="fill: rgb(255, 255, 255); white-space: pre;"/>
</svg>
